;Header Start

;FLAVOR:Marlin
;TIME:6666
;Filament used: 0m
;Layer height: 2
;MINX:2.14748e+06
;MINY:2.14748e+06
;MINZ:2.14748e+06
;MAXX:-2.14748e+06
;MAXY:-2.14748e+06
;MAXZ:-2.14748e+06


;header_type: 3dp
;thumbnail: data:image/png;base64,iVBORw0KGgoAAAANSUhEUgAAASwAAACWCAYAAABkW7XSAAAgAElEQVR4Xu2da5Md1XWGGzDWZXQDCiyQkAh2fIEYExv8xbc4ie2U7SqnyimST7aTL74mP8COK78wsatsIPElgASyiblKDBK6pt4+ekePXq0+c1QMQq1Zp2pqzjm9e+/da+/19LtW7+5z2/r66UtDv9oCbYG2wAwscFsDawaj1F1sC7QFRgs0sHoitAXaArOxQANrNkPVHW0LtAUaWD0H2gJtgdlYoIE1m6HqjrYF2gINrJ4DbYG2wGws0MCazVB1R9sCbYEGVs+BtkBbYDYWaGDNZqi6o22BtkADq+dAW6AtMBsLNLBmM1Td0bZAW6CB1XOgLdAWmI0FGlizGaruaFugLdDA6jnQFmgLzMYCDazZDFV3tC3QFmhg9RxoC7QFZmOBBtZshqo72hZoCzSweg60BdoCs7FAA2s2Q9UdbQu0BRpYPQfaAm2B2ViggTWboeqOtgXaAg2sngNtgbbAbCzQwJrNUHVH2wJtgQZWz4G2QFtgNhZoYM1mqLqjbYG2QAOr50BboC0wGws0sGYzVN3RtkBboIHVc6At0BaYjQUaWLMZqu5oW6At0MDqOdAWaAvMxgINrNkMVXe0LdAWaGD1HGgLtAVmY4EG1myGqjvaFmgLNLB6DrQF2gKzsUADazZD1R1tC7QFGlg9B9oCbYHZWKCBNZuh6o62BdoCDayeA22BtsBsLNDAms1QdUfbAm2BBlbPgbZAW2A2FmhgzWaouqNtgbZAA6vnQFugLTAbCzSwZjNU3dG2QFuggdVzoC3QFpiNBRpYsxmq7mhboC3QwOo50BZoC8zGAg2s2QxVd7Qt0BZoYPUcaAu0BWZjgQbWbIaqO9oWaAs0sHoOtAXaArOxQANrNkPVHW0LtAUaWD0H2gJtgdlYoIE1m6G6eTt67tzZjc6dPXtu0OeLFy8OH/zgB4dhuG38v3jfr7bAu7NAA+vd2e+W2Pv8+fPjcRg8gg4/T3+/KHfp0qXhtttuG//7s+tMA6mc4KX/d94piF26/H/YgJq2qypDroF3S0yzLTmIBtaWmPHmr+T8+QVc3nnnnfG/FNDi85nxuynAVEeWgBJ87rjjjg1o6bPqVDn9uW616e8MNv1X+WXtXOnvAop79+4d7rzzzhFoO3fuHPbvP3DzD0D3cEss0MDaEjPeHJUYSqdPnx5uv/2O4cyZ02PH9P3tt98+Ornh4P9nzpwZ9Gd1VB0J98n9DS+CR98ZjFRertvfXbhwYQOc2kdAM0irfgh8BKvhp/86Nr327t03gmzHjp0jzA4caJjdHLNza3rRwNoaO97QWi5evDCcO3d+OHv2nRFKcnI5skDwgQ98YFQ7duBUL/ysfU6dOnVN31mGIKtgRQixIgJrmZqqQGloGWAGkwB37ty5q6A2BVoqu0VIuWPYv3//2EX9P3Dgrhs6Zt3Y1liggbU1dnxPa7EDC1Dr6+sjqPSdoCQ47dix4xrlZMUjZaU/qhErG0HFYZpVD/NQDsX4HaHF8E7fE3QJrFUNlABK4AqyqlvHoPfLFFm2aRXn/7LdvffeN9x9993DXXfdvWoXu9z7aIEG1vto/GVNL1TTudEpL1w4P4JJjuZEtBzZIKKCqZx0Ucci/LKDqy59x5BuSglVKoaAI7gMubNnr1w5rI6zyltlPQlH16MQ1i8dj1SXXtnmlLokvK9AbJHkX8DrrgbYTeoXDaybZGAMKDmfFJSBpBBPSkpwmnplIlt1EVAVcBwyTUHBCi0h4u/5n/2iGjMUreIy6T4FLdaXZdxvwzaPzQDz9qqfaS+VUXlfKPCSDMFr585dwwMPHBp27dp1k8yU7d2NBtb7NP7OO50/f3Y4f/7CqKIMKcJJwNJfpZyocuRwDpNc1s5eAWvKoV2W+1Z5LPXRYWAFNefUKpgJymx/2RBUbTuXRUXIchU02V6Gva5H/bJa83e26e7du0dw6Zg//OGPvE+zppttYN2gOeCJrzBPSXOFL84v2fnpgHrP5Hk6J6+wMcyr4FQdYhUOVuVcH/Ngeq++Wb0w1DTo5PiVgnIbVFvuv/rkV4ZthqPrdI6sUkvLlKiBRDDRtgo32Q/2x2OoNnft2j0cOnRoEMgOHTp8g2ZRN9PAeg/nwCLMODPCSYsvraC8ZolKKs/6Kutkup0781DV1bxVgOW8DcMl5rJYr9p2v5mgp8JKYDlsy/rzs9us8mE+Vv9ne6qHVwsJNw5npTBTiTlx72PT/loWUkGLdWs/Q28BsF3D4cMPDocPHx5h1q/3xgINrC22q3NRUgDKRfklh1NoVyXK04nkaFYwdKTsKh1y1atlhoNBVDk4lVNCJcsTNtyWCsYqJsPIZXkst20AErS+kOB6qbSmlF0Fc/fHdla9OsHoaiyVl4+tyqnpWLk+TDlHhY+PPPLoFs+urq6BtUVzYJHsPTsqKp2d7QgM99IBKgdallxnV6mI+D7LZE6KDu6yq6gyQ0zHZUVl5VUdlx0481tTea9l+bAcIgMsF5JW5dIem5XxsQhCb7/99lWLajcDoS92qF/qo046Dz54ZHjooYeG3bvXtmimbe9qGljvYvwXE3QRGui/ndOQqpK7lUIhDFaB2lSX7VBVwtxA0L5UY+5zKo0p5UTIsc7sN8OlKtxku9q3shlBmuFvXglNhZmgTChvNjba7jyZQkSvWVs2XVIp68QltaZ9FSYePXq0Vde78LfRT9bXTy/uWO3XyhawmlICvcqfEBzL1IsVShVmVEooYTelkKhW3AYdeNmNyQnPDB1dTxVSElpWGf5uSp2k0ROUCSrWl+uuMpG/mXJMqKUaU/0MyQmgKdvn8bgPgp7+1tbWhqNHHxrh1aprZZfbKNjAWtFmPqMvFNViIvvFvFQ6fDWBGUotUykVtBjiVaBLWKUT6rOBtQwiua1SbQRU9jXXSRlEts9mQK5C2WzPwKI6s5rTfy/1yP0Im2yHysuAyvJe6+XE/ypgVB1SWroKKfurz7rC+IlPPDICrF+rWaCBtYmdnEQXpJjo9dqoTKJnWEZFQDhV5ehYdPAMNeyUCbsqrEsloDJTwMowqYLpMuekYvGyhuw7gZVh3FQoOzVEVnEJrAqkXveWAGe4Wqkm5bHYL4JW+6pegai6yFC1Jcj6CqP2Ud/X1vZ0uLgarzoknLLTpUuaiFcevaKJqSQqF3FWyxLokFNqq4KVv/Pl9HSSnPze7tDMcKlCqgyrptYZEYSVXTKEqhSeyxhYLJOA4mfC0SBIOCZAuZYsjztVkev09wwfU/UReH6SRdowr95adfG2oQSwbePcmNd1GXaaTw899GcjvHSPY7+utUArrLCJJtH6+ltj2OerfQmqKRCxKi8KzbO9y1Th2LKcStatz3Ya1ZWLT11XOjkdrVJumfxOR2W91bG5PPNLVG6pAqlAK/VlEBHMri+BVS3toE0TgFNgpIriqvoKgqzTx6ZclcNFgtR94QJUj2MujZDqevLJJxtc4Z8NLBhEoNKflUauNCdsEjhUOBWMVjlbVg5X7Ve1TYjaMTI/ozK5mpxOmHUQIATkKsciYC2zQ8J5CoRTysnHQpBN2Y92YLtUQKm4CGMBiK+EIOtnf626+DBD1zu18NXhovv2xBOfHZdF9GthgQbW5ZlgWFmt+HlSy4DhSUU1tWxiVSFUnrVZJkOKrDvVU26vgHU9TxY1ADL0pWIixKlMNkvsV+AwhKrQkyDwcTupTtWmOngbkbel4iTUU3mlCnXeqTruPI4ErLZbpSWkMmnPflBxKSn/5JOfbWY1sBZzQLB6++31MT8lUOUEzrMrQ7BVF3pSvdCxK4VD0Nj5qnxPqpJVgMWbgNmnzVRD1p05HMJVZa2w7MBuKwFdeSHt77CN9bAOLq9IQGc9PF4qqlRIWb+ORX8J0hxHwpHbOHaqw0l6hptTc843ZLfSWozKtldYmkxvvvn6VY8Pria6J7HV1GZh37KwzZOZ6sSTOpVEAo2OX6mGqTrdZgUa1ZNqzt/5ex4PIVIdi75zGMT+LAvvEngVyKuwzXnG7EeeZNgPl82LD1NQ1PH6/sLqJFEp2VRj+dnhom4B4l0BCXb3VcD83Oc+v+1zWtseWLrfz78Kk05DpzWoqjNh5dSeaBm2ceJaqans1JW7agKnMyZsnDjP0MagcZ3LlGQqn1QXDLsqlWRFUm3L72gjh1Du49SJQcfmpQoVbAkw1uETQ8KegExY67MXkbrNKbCkTfmZwKYy1GOqE/DViemxxz413mC9nV/bHliS3O+8c3rj3r88E/MpAZs5eDreVHmCypM4cz7VWbuaqMzfUCkl1AjKqbP/MkhVirEKkVyHHLCCdTpwKrdlNk7lq8/V4k32K08mlR2qccvvMv/kp0hM2XkKKu4bw0Tnq6rncRG8H/3ox4aPfOTPtzOvOiR8/fXXhh07rvzIJye481ObqQlCLs/2nF0JKk/GDNOud0bSuTJHlXUtuxKZ6s/9S3gm8CqnzXVYU4qGbfg4EoS0T4aVPF4ryGVjkEpq2dixP7nswDagPbOfaRceK1MAeu/1W6q3um9R333qU4+P67S282vbKyxJ/eee+/1w5MiRcR4YKlzBru9WWXKQZ+XKGarJtiqwphy6Cjt8LISNwyheKMiFqu6fQxYCgu+nlJC/z6uRFbASfHTiDOMqxanyVjpT0E5VVkFkFWXs23QIQ9rYsGSoV6lHKiyeHJXLSvgJkiqvOXrixInhq1/92vDwwx/ezrxqhaXR/+Uv/+vyTalHr3pqAJ3Mk5NnaMr13J6hyLJZxrzKsnJT4ZNDQQOlKsf+2LkSOgm3VTzDbatshjm5P+uvwrZl4K6Apfp5k3XV3tTVwBy7qXG13VSPVI5hnyC07VPxJeCm2pHCqm7vEcheffXV4cUXXxx++tN/X2VIbuky215haXSfeebpMfGup0YePHhwhJcdijBYlm/hBM5nYG02g9gWHTPby8+pSBKw6Rz8nPBgXX54IKHC966HSk3vreC0nY8wTpgbFpVKy3YqVcm+51MhEt5si1cUCawpcGe/BRWqsbxqmapwCsCug/vrOBgW2obPPvvsCDLdKP3jH//rZlPplt/ewBqG4dlnnx5lt+8T9E892XE9cRMYCQCHk9c7awgstsWzsyY3z+4Jk6pvy87uFSzc74TEVFg1FTZrf1/1YhhJAFQArOxJhcN++HuHhN5GxZfwt7I0nFcJ8zmWvPLp4zJ0UsF6v0rhVScO9U1LJ/z/+eefH1555ZWNp9R+6EMfGr7zne9d79S65co3sIZhOH78hXFy6HfpNPEEKjmjALZnz57xd+rybJsOT2BczyypFAXP/nTYVEx2mqm+JSwqZTMFtWXH4D5bVbGs7ZJrizZrO+2QSmlKjaXKSRvxM0FMNbhM8fHYeKWQwKrsn/2t+knI6qkQL7/88nDs2LHhjTfeGOefFjHrT23dd999w3e/+8/XM7VuybINrGEYXn75j8NLL704AsvrrXgTsH4MQuDauXPn+FcBZbPZwVCiCrU2A0eqHKoHXsWsVMXUvqtC+HpySwQW8zo+fv0nLAjVVEeb2SQhkEqV9TkZbsi6rPtDu3F8NwPWFEin6mOfpagEKuWnBCoD0Tfb+yfe1Mcnnnhy+PKX/3qzaXbLb29gDcOgpQ3PPfe/Gz/97tCOyxrsPPpOABO49u3bt2UThGdbTvbKIdioQcCrfalWDCY77dR2Ko0MMVdx6HRu15dKr1IfLJuqkvtX/XKolwCeUk4ZCiboEqKuN5/cwDFbNhGohAUpJdGPHz8+vP766yOk3H+/9033fEqIrhA+/vhfbtl8m2tFDSwAS2c0h4NcMGqAMU/h9yqvJL0gpr9VX1QP6TBTdTCkSSWVwLKTsRyvRlp9EB68b5Fg8H5TN0G7vzwmXvHS99VK/ikwqD5ChaqM/aKCq2CbCovgThtXKpRg9zHwuHL71MlFyXRBSksTXnvttasUpuvzjdzus9W+QkLZ4qmn/ml4+OGHV51et2y5BtblG3WffvpXG3krwsrvE2DVhBe89OfQcRnAqCJy4rvudIBUF1QUlbNMJZU3U3DpvNXsN0QYPrF/+bz1VGg8xqo9q8G0U6pLlfMjh6t+Zq6KUM02uL9VT9qVD+irbC4FpRyUXgKU3qscr2Y6LHTfVdbLIQws34iv/9r3Bz/40UYu9Zal0QoH1sC6bKRf/OI/R2AZOoaBQeUfP7XKoaNSzXgSW434SqPOmH5kjX8g1XVSCeR7OnYFrErdZEiVdSSw0omn5g0dNMM87cNcWq64T+cmpKeAOAWNPD6rt6k6pwBcnRAYvnG74KJ80+JHcfXr3Yt1WW+++ebGlT2FeN7Hx++TBvvIbb44YaB5fmmuOIelNn/2s5+v4M63fpEG1uUxfuaZX28sbUiFpSKaPJ5MdHDCipPdQGMYR7gQPmpP62w02R1apuNUDu+2WRenLBVElTivoON2NlNhqQITprw3slJjDDMrpZKQyRDR9rWCYn+nyqaCqgDnE42UktSUoHTy5MlxyYH+u5183Ix/Qdpt5D2ODMdtG33nkND7OyVhYOmz1gf+5Cf/duvTaIUjbGBdNtJvf/s/4xmUOSxtskLyf+ZxDAyqrUrd6DtenTIQDRGDg5BSGakyLrHQey+9WKaCliksOZyPIa+yJfhclhBLWPvYrQy9nc/Dcl8JTSpR1pkQSahyu0GYt+e4zJQi9XYDyYtcpZb0nUO66sTkY/Gz3v3ZwPFxOYHutgws2pyPSjbErLqpsO69995e0nDZ0A2sy4Y4duz58aqNw8Iqd2VAcQFnQouw8HsCa5kyYXlNYDprQs6LXB3CyjH0Xg7hNWR2Eq/lkYPwIYWVY2f/qCCXnQCpovSej0gm+Ny/St1MhWN5QlA5AUPH44fhuU3C1SrIcOF/rsSvFJ7VaR6zw16d3PjiAlbV5xAvFaD2cUjIffhr0ToWr8FSewLW9773Lyvoj1u/SAPr8hj/4Q8nxvVYBgBzVnZah3cJrGqaUEHY4VLB0MmzjlQdqZoMIzs5bzZ2vXReKyCDQuDSe+fV9F/H7O38ng5t+Km/7IP772Q7r6apLdrMdrRd+Mx0QcVQ8Gp5/56f9tN7/VFVEWhUMFN2mLILlSDHg/31cedtNLS/k+lUV1RY7qPzWgwNPf98YpEtPvOZJ3oNViusqxHx2muvDi+88PxGolOTlA6sicPcFnMmhAEVCcOkXBJAZZb5JSulDH8MJz66hcBKqLFfzOvwPa3gsCbBSmdze1YgU4+zyWOyvfi9QcArZKnwtJ/vAaTNs10ek+1GMDGHVAGL0KtgnOGlb6NxW1bEKsclCu4/j982YC7L+/OEadB/5Stf7TVYDayrgaXFo88//9wILOeNKmARNHQghjN0Op6dqZrYOuvJ7w0d1slwxfvyR0UrR6VDJgh5pue+BKDKELoGQCo7qorqGB0iaRtzaQky99dKynW5TwYWw2aDJu2ZaizhVY1dqmKefFQfFZbq4zo4A0t1MOzzZ/fPeS6X8UnRoLqyBusft/1jZTbGf3399KWrXXd7flIoo7VYPsNp8vgHKQyIKvHOcCnDiFUtSSc04FLJsJ0MxewwKuNwiqqo6gfBYQgTXA6nfLGADun62C4d3CqD7VYKhxBlf3yiIAgS3FMKK5WWj8MqzW0SzAlznpQyNJc9+GQF11+tszJArYj1meXyCqFzj7zQouPpNVhXZlLnsOBVXIulr7UAVBM7gcXwIM/wBg7hkWd8rlfK8Ixne7bjPmS4Y5VSPWbFDpMgzXVLhCNhmErN0HBf9N+hjJ3cZdwG+0Bll8fNbWyX9fg4suxUvR479oF5LY5dqmWXI7wIIOfaXAfXVuXJgBcgeFO431tpWVlRYamdn//8P1Y9993y5RpYGGKvxXLCXetfOPn4M/XejfAhrOy4CSuVsWqx4+dZnE6S9WibJngur+DCQwKlmsF2ZDt6hllu32GatufTF6hcptqgcrGz8wSQqpGgIhwZAlcKiZCt8mEMN6v9OUZul+kAjpPe57PXUwkyjFV9VlK0o2FP1eV0BBPvvQbr6tnVwII9fve73w5vvXVqDAs1uaSwOMkcElL5LDulJZDybE1VQkWmCe8+pBKhWuC2PKvTMdkPA8NOzOUSrsN9cd5Kn6dyVdX3lRLysW6Wk5oCEpVnAohgrBRZho8GNe3nkw3hxzZ54vBqdx+n6s+rhIQvYc+wmwpLdRlYVFq9pKGBNcmYY8deGF599ZWNPJYnkCdZdZXQlTlv44lvFTUFN6oqO1xe+qcjToErlQhVC0OlBIGdJReRqh0fJ0NHQyLVSKVe2O9UcT6OPB7Wz3DM7bE8FSKhYrViqGdITRuwjTxx2Ka2TebvdIWQx63tvHLLbTwJ8KTCK4muPxWW2v/Yxz4+fOtbf7/svLittrXCwnD/8Y9/GE6ceOmaM52dxY6coQ7Pzn6fgMgQLmeZnYT5JNZFlUSQuB3msCoHdP1UBU5EV4AwaDLpvgyC3FaFsvrOasf1pp0STN5ORZjwrNSM9nMb7lcVcibwqA7zpOJtWjTKOnlchiW3E9JcymCAeTx1kUd9lrq2yurnYLXCmjwj+blYvkLoXMIyYHlSZ/hgaNABNoNWBTHXUykM1q3tDOGotBjmEACpjghLhqium3USfOxH9pfgsjJiGQIxYV2Bxvsa0Fm/28jxSFhVAPcJicdZAe2tt97aGCrDiuOT4SHDQJdjrs0XLlJhqZGvfe3veg0WHKMVFoyhifib3/z3xuNpeduLHXiVXIedKp3GwOKZ3827rOv358zJMKdGdUIFUn1PGBIcU4rJTut+pIJbBixty2UELj8FSee2GEoz9PMx2baZXPf45POqaAsqJkKckPNFFJ5wEtSaJ/wuk+zMmTEk5PEQuFbPfjqDlzfo+6ee6jVYnLsNrJA1WoulpKpvPPYtLJ6gzPloV+adCB9P+ARCFeaxbOa8PJmXQcaAoIpwv/Kno1zG9RIEhkk6c9bvfQxPQ42QS9B6m9UEFRyVlMNT9jNhm7Zwf3TM+RwuAouqipBy/fqOVwcrdaUy+uktAiuvoCaMeHy2re9ztM15ZdDv9+7dN/zwhz+KGbq9PzawYvx1T6FyWT7b+Z66KqziWThhlWdlNsP8TYaUntwJLjqPz+D8zmdy7qe6GJ4QTg4fqXwMJgLJ/aEC0nYDj+uweMwEIqFBkBkgy5QU81V6bwWUSs1tTNkmx8PAlL2qPqWio50ELL68zER1Ul3xs9+73z6R+DOvDDqH9cgjjw7f+MY3tzeh4ugbWMV0+PWvfzVcvHhh4455niGrK3nVjLJzTSVuuU9Ci/umQjMs0snteOmYqXQMXiq3hCGd04qnUkwZnvKY3A77k30m5AlWgsyOngCfKp/fy/kznJ06mVB1VcrZQPdN2S7PlewMD3kC0Hv1w3Zk8l31cEmD+nzXXXcP3//+DxpWDazN54DWYv3+978bw0IrLF7dShWTzkSFwtYYklS9yPyJYWWAEQJUGCzHsCYdholhKyzX7bIEJMszXOTaLeeqEjIuT9tQLRFWVCIGJMNMwtX7VcrOKjPtTIgsO4E4XE+l6M/umx9TY2BxXNQvjk0qRPbRx61jIrDuueee4etf/+Zw5MiRzSfrNivRCmtiwAWt48ePbTxp1GdpL+hkmMO81DKH2AxYU+GhwxerK096d50K0GXdlsOVZUpL9bhtO5y/s7MaGgz16HxVee+bAGB7hC3b4LG5fDq/x4BlK1Cm6iIs04aprPIkITtWOSrX4+387GP0SY/j5/76sdl3333P8Pjjjw+f//wXthmKVjvcBtYSO7399voILU1iLrSkEkqnIbx4Zk4nNXy41MHqyNvoTExGa5LzKpzr5i0gBhYVEMFhgFEZEYh+b5AxN0OTWWW4HvYzQcUQMsHOfhpcDnNpUzs7VYz7k2Go209Y82RDW/tOBsI3VaHmge/987GmaiJ43bbHTHVT8bms1PyBA3eNsPriF7+0mvduw1INrE0GXZPzpZeOj48ToVPyLE3n4Voeq50qZLTT0HFVnlclvS0BZQdh2OT67CB2cjtHtsPQj2CcWr7AY6RSrMBB1ZTQJWgNGDtxBX9CmMdA4BJAqQizbipQnyx0zKmsmNfjMag/usKn9gU42zeVok9qBJZPermP2tIvO+un6A8cOLANMbT6ITewVrTVK6/8afjTn/5vo7SBQGgwB0KVkKCj4yXM0lHoCH6w35SSMNjsLNyX7Th3QmB4e7WOyUqHkCUYqKRsICoyHq/tYmVG+2U97qfLsB6ClTbjVUIqnazb22wrqyXCKd+rjBLuDJszLDaMVC+VlI/F/63s9u/fP3z6058Z/uZv/nbFmbi9izWwrmP85cy6dWd9/a0x55PhHBWRwwpWT2gkQFwuYcM67ZjMgbCeKmxLBcR8StWHXLel/e18DJ+8L9dVJZioxNyuwWFg2YbsO8sQGlSFBF+qS7dLqOYwM6/lUNB1UukZ6j4Z6bYchq+pSP3ZY+XjqoC1b9/+4dvf/of+gdTr8MEG1nUYy0W1DufEiRc3Xb+j8lZFBlg6sUNIOgnVANUNQx86kr9PkFWwonNTmbg+5nsMCPeBaohKimuj/D3VW3VsVFgGYcLRNjNICDUev+1FdUVbuS0OtffhFU+eZFSXQc0x043P3mZFy/GqllC4nMdj79694zPapaz6dX0WaGBdn72uKq2kvBaZKqeRAKFi4k48ixtolZP7jK5tufhz2Xd2ep7hqVIIGju1wyH956ptAqpKXBtkqWQIOILD9VudEiR25kqlsf9UXwSF9+d2HxeVWWWLvIjCfua+vvG5UlCqm7k1hu6yq8K/L33pr/rewHfhcw2sd2E876owSjdOK8/FMItn7HQUT3iHI+lolZMuA4hDDgKxynWpnK962hmZcOaldx8LQUbIpYNmn6myrFIq8LkeA4Z3AqTic/sEod9PKUom+itgeX+Cy/1lnerfqVOnxipcliE0yxrG++xqbEkAAATiSURBVPbtG44cOTo89thjw9GjD23BbNveVTSwtnD8NXnfeOP18QdZpb7oXHR+wsn3rrkbdlaXofqhY6fj20FSwVF5sF3mYZg3Y70Ejq+ksV/qD58DlTmmVFfeTmXkMmyXYKbyopLL0JpqzdsMWtvEY5Bgc3tsl7k1AtG/lmMFnMByWwLVo4/+xfCFL3xxC2dYV9XAeo/mwLlzZ8cfZtWvCZ89+841jzSmE9k5HM4RFMxhVXkbQqByWjtnhopcLsB6M6ShkxuYXLqRgLMjcyW6Tax2eGz8nirI4KCCY1l+X5UlENM+DDkJ34RZHrfaVN91MnJIq8/MWQlSuv/vk598bAz/+rX1Fmhgbb1Nr6kxlZedyM7tHehMrMRObujYeaho9N7Ok6GNQcZwlVevrOJcL+GQOSVvq9QOQVEBy6Ch0nNfXZ6K0sek/aREeZMx1Rv7S5tQGdGeVFIeAypTb9d3efXSP++lMkqe33//A8Phw4eHBx880pC6Ab7UwLoBRs4mrL50tj59+spPnlMtEAwEjsskcAgDhjhWNRmGcY0Q+1eFZsyFEVQGAv8bcLx9heFwVZdVJEGiOh3Sse8GWubn8vuEmOtjXxO+tJvhTXvs2bNnvMDy8Y9/Yjh06PAIqn7dWAs0sG6svUv1JYBpqQRzXwkDhm2VMxlYlRNOXbmiSkkQXQvZcxsXFBi6Von17EuGslNh4bLclvNS7CcBr++rvF6qUNrH6oo5L6rfXbt2D2tra8P9998/PPDAA6Oa6tf7a4EG1vtr/7J1hT5K2uu/QHbq1MmrHhhnYDGMYf7K39u5raYY/jAZn6ojc0BWOgRPKj3XUeWCWB8T3gQOvyc08sZlKylDhgZkSOz+VGuzvA+BJfW0+Ns7HDx4cFhb2zOCql83lwUaWDfXeEz2xj8tpVX2clZdXhfIGEYZVFYaVc6LoVN1uZ9qjCFSLog0mJjjIfhcT4a5BBPB4auQGTKqHt+zl4Bjfs0Qr+CbYZ2gpPyTwGRI6X+/bn4LNLBu/jFa2sPFI4EXANN9bnqdPHlyOHPm9MbnKlxK0LiRat2Tc0wJg6l8EnNuDOWsnKigmIBnKEkFl2DK/d2G+q4QTi/9F4R2714b4aT3Bw+2Ypr5dB8aWHMfwU36v4DYpRFeusLlq1wCmtYU6aX/2u7Qj2By2JQLShluZhcYnua2SsG5vSqPpvK7d+/e+MkuhWpra7svQ0nv18bwjZC6xYd0Wx9eA2tbD/+1By+QLSB2Zvzvz4KJAcecFH+j7/bbbxv3uXjx0jUVE0YCkF9WRIt9Ll2Gz6VRGRlCPURtAVuggdVzoS3QFpiNBRpYsxmq7mhboC3QwOo50BZoC8zGAg2s2QxVd7Qt0BZoYPUcaAu0BWZjgQbWbIaqO9oWaAs0sHoOtAXaArOxQANrNkPVHW0LtAUaWD0H2gJtgdlYoIE1m6HqjrYF2gINrJ4DbYG2wGws0MCazVB1R9sCbYEGVs+BtkBbYDYWaGDNZqi6o22BtkADq+dAW6AtMBsLNLBmM1Td0bZAW6CB1XOgLdAWmI0FGlizGaruaFugLdDA6jnQFmgLzMYCDazZDFV3tC3QFmhg9RxoC7QFZmOBBtZshqo72hZoCzSweg60BdoCs7FAA2s2Q9UdbQu0BRpYPQfaAm2B2Vjg/wHHRiK26UtKPAAAAABJRU5ErkJggg==
;file_total_lines: 1902
;estimated_time(s): 92.02000000000001
;nozzle_temperature(°C): 205
;nozzle_1_temperature(°C): null
;nozzle_0_diameter(mm): 0.4
;nozzle_1_diameter(mm): null
;build_plate_temperature(°C): 70
;work_speed(mm/minute): 3000
;max_x(mm): 7.5
;max_y(mm): 7.5
;max_z(mm): 5.0096189975738525
;min_x(mm): -7.5
;min_y(mm): -7.5
;min_z(mm): 0

;Header End

; G-code for 3dp engraving
; Generated by Snapmaker Luban 4.2.2
; Thu Apr 07 2022 16:4:55

T0
M82 ;absolute extrusion mode
;Start GCode begin
M104 S215
M140 S70
G28 ;home
G90 ;absolute positioning
G1 X-10 Y-10 F3000
G1 Z0 F1800
M109 S215;Wait for Hotend Temperature
M190 S70;Wait for Bed Temperature
G92 E0
G1 E20 F200
G92 E0
;Start GCode end
G92 E0
G92 E0
G1 F1500 E-5
;LAYER_COUNT:3
;LAYER:0
M107
G0 F1440 X151.955 Y166.25 Z0.25
;TYPE:SKIRT
G1 F1500 E0
G1 F1080 X152.38 Y165.877 E0.02351
G1 X152.775 Y165.56 E0.04457
G1 X152.929 Y165.445 E0.05256
G1 X153.373 Y165.13 E0.07519
G1 X153.823 Y164.844 E0.09736
G1 X153.961 Y164.762 E0.10403
G1 X154.445 Y164.49 E0.12711
G1 X155.03 Y164.202 E0.15422
G1 X155.563 Y163.972 E0.17836
G1 X156.034 Y163.793 E0.19931
G1 X156.228 Y163.728 E0.20781
G1 X156.754 Y163.565 E0.23071
G1 X157.265 Y163.432 E0.25266
G1 X157.915 Y163.297 E0.28026
G1 X158.425 Y163.217 E0.30172
G1 X158.638 Y163.192 E0.31064
G1 X159.195 Y163.14 E0.3339
G1 X159.866 Y163.114 E0.36181
G1 X160.453 Y163.12 E0.38622
G1 X160.998 Y163.153 E0.40892
G1 X161.15 Y163.168 E0.41527
G1 X161.666 Y163.228 E0.43687
G1 X162.194 Y163.315 E0.45912
G1 X162.383 Y163.354 E0.46714
G1 X162.914 Y163.475 E0.48978
G1 X163.556 Y163.657 E0.51752
G1 X164.112 Y163.846 E0.54194
G1 X164.717 Y164.088 E0.56903
G1 X165.221 Y164.32 E0.5921
G1 X165.675 Y164.554 E0.61333
G1 X165.853 Y164.654 E0.62182
G1 X166.307 Y164.924 E0.64378
G1 X166.734 Y165.203 E0.66499
G1 X166.909 Y165.327 E0.6739
G1 X167.35 Y165.656 E0.69678
G1 X167.784 Y166.016 E0.72022
G1 X167.895 Y166.115 E0.72641
G1 X168.277 Y166.468 E0.74803
G1 X168.752 Y166.957 E0.77637
G1 X169.121 Y167.378 E0.79965
G1 X169.558 Y167.934 E0.82905
G1 X169.872 Y168.378 E0.85166
G1 X170.153 Y168.818 E0.87336
G1 X170.237 Y168.96 E0.88022
G1 X170.506 Y169.438 E0.90303
G1 X170.799 Y170.031 E0.93053
G1 X171.024 Y170.553 E0.95416
G1 X171.271 Y171.226 E0.98396
G1 X171.433 Y171.748 E1.00669
G1 X171.566 Y172.25 E1.02828
G1 X171.614 Y172.47 E1.03764
G1 X171.712 Y172.972 E1.0589
G1 X171.808 Y173.636 E1.0868
G1 X171.86 Y174.193 E1.11005
G1 X171.885 Y174.719 E1.13195
G1 X171.887 Y174.907 E1.13976
G1 X171.881 Y175.434 E1.16168
G1 X171.841 Y176.049 E1.1873
G1 X171.767 Y176.696 E1.21437
G1 X171.677 Y177.231 E1.23693
G1 X171.638 Y177.417 E1.24483
G1 X171.519 Y177.935 E1.26693
G1 X171.337 Y178.574 E1.29455
G1 X171.151 Y179.121 E1.31857
G1 X170.952 Y179.623 E1.34102
G1 X170.889 Y179.764 E1.34744
G1 X170.662 Y180.256 E1.36997
G1 X170.34 Y180.864 E1.39857
G1 X170.063 Y181.328 E1.42104
G1 X169.679 Y181.902 E1.44975
G1 X169.342 Y182.353 E1.47316
G1 X168.985 Y182.783 E1.49639
G1 X168.869 Y182.914 E1.50367
G1 X168.522 Y183.287 E1.52485
G1 X168.021 Y183.773 E1.55387
